icons/smarty.svg

<?xml version="1.0" encoding="utf-8"?>
<!-- Generator: Adobe Illustrator 21.0.2, SVG Export Plug-In . SVG Version: 6.00 Build 0)  -->
<!DOCTYPE svg PUBLIC "-//W3C//DTD SVG 1.1//EN" "http://www.w3.org/Graphics/SVG/1.1/DTD/svg11.dtd">
<svg version="1.1"
	 id="svg2" inkscape:version="0.91 r13725" sodipodi:docname="android.svg" xmlns:cc="http://creativecommons.org/ns#" xmlns:dc="http://purl.org/dc/elements/1.1/" xmlns:inkscape="http://www.inkscape.org/namespaces/inkscape" xmlns:rdf="http://www.w3.org/1999/02/22-rdf-syntax-ns#" xmlns:sodipodi="http://sodipodi.sourceforge.net/DTD/sodipodi-0.dtd" xmlns:svg="http://www.w3.org/2000/svg"
	 xmlns="http://www.w3.org/2000/svg" xmlns:xlink="http://www.w3.org/1999/xlink" x="0px" y="0px" viewBox="0 0 24 24"
	 style="enable-background:new 0 0 24 24;" xml:space="preserve">
<style type="text/css">
	.st0{fill:#FFCE00;}
</style>
<path class="st0" d="m 9.14092,20.606295 c 0,0.555933 0.3970945,0.953027 0.953027,0.953027 h 3.812106 c 0.555932,0 0.953026,-0.397094 0.953026,-0.953027 V 19.653269 H 9.14092 Z M 12,2.4987893 c -3.6532688,0 -6.6711865,3.0179177 -6.6711865,6.6711864 0,2.3031473 1.1118644,4.2886203 2.8590799,5.4799033 v 2.14431 c 0,0.555932 0.3970945,0.953027 0.9530266,0.953027 h 5.718159 c 0.555933,0 0.953027,-0.397095 0.953027,-0.953027 v -2.14431 c 1.747215,-1.191283 2.85908,-3.176756 2.85908,-5.4799033 C 18.671186,5.516707 15.653268,2.4987893 12,2.4987893 Z m 2.700242,10.5627127 -0.794189,0.555932 v 2.223728 H 10.093947 V 13.617434 L 9.2997578,13.061502 C 8.0290556,12.187893 7.2348668,10.758353 7.2348668,9.1699757 7.2348668,6.5491525 9.3791767,4.4048426 12,4.4048426 c 2.620823,0 4.765133,2.1443099 4.765133,4.7651331 0,1.5883773 -0.794189,3.0179173 -2.064891,3.8915263 z"/>
</svg>

<svg enable-background="new 0 0 24 24" version="1.1" viewBox="0 0 24 24" xml:space="preserve" xmlns="http://www.w3.org/2000/svg"><style type="text/css">
	.st0{fill:#FFCE00;}
</style><path class="st0" d="m9.1409 20.577c0 .55593.39709.95303.95303.95303h3.8121c.55593 0 .95303-.39709.95303-.95303v-.95303h-5.7182zm2.8591-18.108c-3.6533 0-6.6712 3.0179-6.6712 6.6712 0 2.3031 1.1119 4.2886 2.8591 5.4799v2.1443c0 .55593.39709.95303.95303.95303h5.7182c.55593 0 .95303-.3971.95303-.95303v-2.1443c1.7472-1.1913 2.8591-3.1768 2.8591-5.4799 0-3.6533-3.0179-6.6712-6.6712-6.6712zm2.7002 10.563-.79419.55593v2.2237h-3.8121v-2.2237l-.79419-.55593c-1.2707-.87361-2.0649-2.3031-2.0649-3.8915 0-2.6208 2.1443-4.7651 4.7651-4.7651 2.6208 0 4.7651 2.1443 4.7651 4.7651 0 1.5884-.79419 3.0179-2.0649 3.8915z" fill="#ffce00"/></svg>
